X:7
T:Simple Maid. WR1776.07, The
B:Wm.Randall CDs 1776
Z:vmp.Steve Mansfield 2015
M:2/4
L:1/8
W:Cast off 1 Cu. & Allemande with your Part: cast
W:off again & Allemande lead up to the top cast off
W:turn your Partner foot it three & three turning outwards
W:turn round & turn your Part: the same join hands 6 round
W:and back again
N:NB Uses the abc standard v2.1 Voice overlay syntax (section 7.4)
N:which is marked as volatile in the standard so may not be supported
N:in future versions of the standard
Q:2/4=60
K:G
"NB" G/F/G/A/ G=F &G,4- | G,2 z2&E2 AB | cAGF | G/F/G/A/ GG |
"NB" G2 G/A/G/=F/ &G,4- | G,2 z2&E2 AB | cAGF | G2 G,2 :|
|: d2 gd | cfaf | gdcB | AFED |
G/F/G/A/ GA | B/A/B/c/ dg | dBcA | G2 G,2 :|

